X:789
L:1/8
M:3/4
K:C
"^A""C" c'2 c'>c e2 | c'2 c'>c e2 |"G7" d2 d>a g2 |"C" c2 c>a g2 | c'2 c'>c e2 | c'2 c'>c e2 | 
"G7" d2 d>a gB |"C" d2 c2 c2 ||"^B""G7" G2 B>d f2 |"C" c2 e>g c'2 |"G7" b2 a2 g>d |"C" a2 g>e c2 | 
"G7" G2 B>d f2 |"C" c2 e>g c'2 |"G7" b>a g>f e>B |"C" d2 c2"_Fine" c2 ||[K:F]"^C""C7" (gc') g2 g2 | 
"F" (ac') f2 f2 |"C7" gb eg ce |"F" f>e fg a2 |"C7" bc' g2 g2 |"F" ac' f2 f2 |"C7" gb eg ce | 
"F" g2 f2"_d.c" f2 |]

